static/images/duckduckgo.svg

<?xml version="1.0" encoding="UTF-8"?>
<svg xmlns="http://www.w3.org/2000/svg" xmlns:xlink="http://www.w3.org/1999/xlink" width="313pt" height="313pt" viewBox="0 0 313 313" version="1.1">
<g id="surface714">
<path style=" stroke:none;fill-rule:nonzero;fill:rgb(87.058824%,34.509805%,20%);fill-opacity:1;" d="M 313 156.480469 C 313 242.917969 242.925781 312.980469 156.5 312.980469 C 70.0625 312.980469 0 242.917969 0 156.480469 C 0 70.058594 70.0625 -0.0195312 156.5 -0.0195312 C 242.925781 -0.0195312 313 70.058594 313 156.480469 Z M 313 156.480469 "/>
<path style=" stroke:none;fill-rule:nonzero;fill:rgb(100%,100%,100%);fill-opacity:1;" d="M 288.996094 100.40625 C 281.699219 83.183594 271.273438 67.792969 258.21875 54.753906 C 244.921875 41.453125 229.527344 31.28125 212.585938 23.988281 C 194.847656 16.421875 176.0625 12.765625 156.5 12.765625 C 137.191406 12.765625 118.164062 16.675781 100.414062 23.988281 C 83.210938 31.027344 67.808594 41.453125 54.773438 54.753906 C 41.472656 68.054688 31.304688 83.445312 23.992188 100.40625 C 16.433594 118.136719 12.785156 136.917969 12.785156 156.480469 C 12.785156 176.042969 16.6875 194.824219 23.992188 212.554688 C 31.304688 229.769531 41.726562 245.171875 54.773438 258.207031 C 68.078125 271.503906 83.472656 281.675781 100.414062 288.988281 C 118.164062 296.558594 136.9375 300.195312 156.5 300.195312 C 175.792969 300.195312 194.847656 296.292969 212.585938 288.988281 C 229.527344 281.675781 244.921875 271.242188 258.21875 258.207031 C 271.527344 244.902344 281.699219 229.515625 288.996094 212.554688 C 296.5625 194.824219 300.226562 176.042969 300.226562 156.480469 C 300.226562 136.917969 296.5625 118.136719 288.996094 100.40625 Z M 187.796875 285.59375 C 179.457031 271.503906 157.546875 232.117188 157.546875 202.910156 C 157.546875 135.621094 202.664062 193.269531 202.664062 139.53125 C 202.664062 126.742188 196.414062 81.886719 157.289062 72.503906 C 147.628906 59.71875 124.9375 47.449219 88.9375 52.40625 C 88.9375 52.40625 94.9375 54.238281 101.714844 57.621094 C 101.714844 57.621094 88.675781 59.449219 88.160156 68.320312 C 88.160156 68.320312 113.992188 67.011719 128.59375 71.714844 C 94.9375 76.148438 77.71875 93.878906 80.851562 125.964844 C 85.289062 171.613281 104.601562 252.996094 111.378906 281.425781 C 60.253906 263.164062 23.46875 214.121094 23.46875 156.480469 C 23.46875 83.183594 82.941406 23.457031 156.5 23.457031 C 230.050781 23.457031 289.523438 82.925781 289.523438 156.480469 C 289.261719 219.082031 245.96875 271.503906 187.796875 285.59375 Z M 187.796875 285.59375 "/>
<path style=" stroke:none;fill-rule:evenodd;fill:rgb(99.215686%,82.745099%,3.921569%);fill-opacity:1;" d="M 149.203125 178.136719 C 149.203125 160.925781 172.6875 155.433594 181.550781 155.433594 C 205.546875 155.433594 239.449219 140.058594 247.804688 140.308594 C 256.410156 140.574219 261.882812 143.96875 261.882812 147.871094 C 261.882812 153.609375 213.890625 175.261719 195.371094 173.429688 C 177.628906 171.867188 173.464844 173.707031 173.464844 180.996094 C 173.464844 187.257812 186.238281 192.992188 200.324219 192.992188 C 221.453125 192.992188 242.054688 183.613281 248.320312 188.042969 C 253.792969 191.957031 233.976562 206.046875 211.28125 206.046875 C 188.582031 206.046875 149.203125 195.351562 149.203125 178.125 Z M 149.203125 178.136719 "/>
<path style=" stroke:none;fill-rule:nonzero;fill:rgb(17.647059%,30.980393%,55.29412%);fill-opacity:1;" d="M 190.933594 105.105469 C 184.679688 97.011719 173.464844 96.746094 169.554688 106.144531 C 175.542969 101.449219 182.855469 100.40625 190.933594 105.105469 Z M 190.933594 105.105469 "/>
<path style=" stroke:none;fill-rule:nonzero;fill:rgb(17.647059%,30.980393%,55.29412%);fill-opacity:1;" d="M 121.289062 105.363281 C 112.683594 100.140625 98.339844 99.625 99.125 116.058594 C 103.300781 105.882812 109.035156 104.0625 121.289062 105.363281 Z M 121.289062 105.363281 "/>
<path style=" stroke:none;fill-rule:nonzero;fill:rgb(17.647059%,30.980393%,55.29412%);fill-opacity:1;" d="M 185.722656 120.496094 C 181.023438 120.496094 177.117188 124.40625 177.117188 129.101562 C 177.117188 133.796875 181.023438 137.699219 185.722656 137.699219 C 190.417969 137.699219 194.328125 133.796875 194.328125 129.101562 C 194.328125 124.40625 190.417969 120.496094 185.722656 120.496094 Z M 188.855469 128.578125 C 187.546875 128.578125 186.238281 127.527344 186.238281 125.964844 C 186.238281 124.667969 187.285156 123.351562 188.855469 123.351562 C 190.417969 123.351562 191.464844 124.40625 191.464844 125.964844 C 191.195312 127.273438 190.152344 128.578125 188.855469 128.578125 Z M 188.855469 128.578125 "/>
<path style=" stroke:none;fill-rule:nonzero;fill:rgb(17.647059%,30.980393%,55.29412%);fill-opacity:1;" d="M 118.949219 125.179688 C 113.46875 125.179688 109.035156 129.613281 109.035156 135.097656 C 109.035156 140.574219 113.46875 145.007812 118.949219 145.007812 C 124.421875 145.007812 128.859375 140.574219 128.859375 135.097656 C 128.859375 129.613281 124.421875 125.179688 118.949219 125.179688 Z M 122.601562 134.304688 C 121.039062 134.304688 119.726562 133.003906 119.726562 131.441406 C 119.726562 129.875 121.039062 128.574219 122.601562 128.574219 C 124.167969 128.574219 125.46875 129.875 125.46875 131.441406 C 125.46875 133.003906 124.167969 134.304688 122.601562 134.304688 Z M 122.601562 134.304688 "/>
<path style=" stroke:none;fill-rule:nonzero;fill:rgb(83.529413%,84.313726%,84.705883%);fill-opacity:1;" d="M 97.292969 82.925781 C 84.773438 92.066406 79.042969 106.144531 80.863281 125.964844 C 85.292969 171.617188 104.605469 253.246094 111.382812 281.675781 C 113.726562 282.464844 116.078125 283.246094 118.429688 284.027344 C 114.25 266.8125 94.164062 182.832031 85.292969 118.40625 C 82.949219 101.183594 89.722656 91.015625 97.292969 82.925781 Z M 97.292969 82.925781 "/>
<path style=" stroke:none;fill-rule:nonzero;fill:rgb(83.529413%,84.313726%,84.705883%);fill-opacity:1;" d="M 128.339844 71.714844 C 129.382812 71.714844 130.164062 71.445312 130.164062 71.445312 C 116.601562 64.9375 95.214844 64.660156 89.472656 64.660156 C 88.949219 65.71875 88.425781 67.011719 88.425781 68.320312 C 88.167969 68.585938 113.46875 67.011719 128.335938 71.714844 Z M 128.339844 71.714844 "/>
<path style=" stroke:none;fill-rule:nonzero;fill:rgb(83.529413%,84.313726%,84.705883%);fill-opacity:1;" d="M 103.816406 57.621094 C 99.648438 54.765625 96.253906 52.941406 94.15625 51.882812 C 92.339844 52.152344 90.773438 52.152344 88.949219 52.417969 C 88.949219 52.417969 94.945312 54.238281 101.726562 57.621094 L 101.210938 57.621094 Z M 103.816406 57.621094 "/>
<path style=" stroke:none;fill-rule:nonzero;fill:rgb(40.392157%,74.117649%,27.843139%);fill-opacity:1;" d="M 208.925781 231.070312 C 204.496094 230.03125 187.285156 242.285156 180.761719 246.980469 C 180.503906 245.675781 180.25 244.632812 179.976562 244.109375 C 179.191406 241.503906 162.503906 243.070312 158.59375 247.242188 C 148.160156 242.285156 127.292969 232.640625 127.035156 238.636719 C 126.246094 246.464844 127.035156 279.058594 131.207031 281.410156 C 134.339844 283.234375 152.070312 273.585938 160.941406 268.632812 L 161.195312 268.632812 C 166.675781 269.9375 176.855469 268.632812 180.503906 266.285156 C 181.023438 266.027344 181.289062 265.503906 181.542969 264.984375 C 189.632812 268.113281 207.097656 274.367188 210.757812 273.0625 C 215.453125 271.765625 214.414062 232.378906 208.925781 231.070312 Z M 208.925781 231.070312 "/>
<path style=" stroke:none;fill-rule:nonzero;fill:rgb(26.274511%,63.921571%,27.843139%);fill-opacity:1;" d="M 161.199219 268.632812 C 155.726562 267.589844 157.550781 262.109375 157.550781 249.328125 C 156.234375 250.105469 155.199219 251.164062 155.199219 252.203125 C 155.199219 264.984375 153.121094 270.726562 158.851562 271.5 C 164.328125 272.804688 174.503906 271.5 178.675781 269.160156 C 179.460938 268.632812 179.726562 267.851562 179.976562 266.542969 C 176.066406 268.890625 166.417969 269.9375 161.199219 268.632812 Z M 161.199219 268.632812 "/>
</g>
</svg>

<?xml version="1.0" encoding="UTF-8"?>
<svg width="313pt" height="313pt" version="1.1" viewBox="0 0 313 313" xmlns="http://www.w3.org/2000/svg">
 <g id="surface714">
  <path d="m313 156.48c0 86.438-70.074 156.5-156.5 156.5-86.438 0-156.5-70.062-156.5-156.5 0-86.422 70.062-156.5 156.5-156.5 86.426 0 156.5 70.078 156.5 156.5z" fill="#de5833"/>
  <path d="m289 100.41c-7.2969-17.223-17.723-32.613-30.777-45.652-13.297-13.301-28.691-23.473-45.633-30.766-17.738-7.5664-36.523-11.223-56.086-11.223-19.309 0-38.336 3.9102-56.086 11.223-17.203 7.0391-32.605 17.465-45.641 30.766-13.301 13.301-23.469 28.691-30.781 45.652-7.5586 17.73-11.207 36.512-11.207 56.074s3.9023 38.344 11.207 56.074c7.3125 17.215 17.734 32.617 30.781 45.652 13.305 13.297 28.699 23.469 45.641 30.781 17.75 7.5703 36.523 11.207 56.086 11.207 19.293 0 38.348-3.9023 56.086-11.207 16.941-7.3125 32.336-17.746 45.633-30.781 13.309-13.305 23.48-28.691 30.777-45.652 7.5664-17.73 11.23-36.512 11.23-56.074s-3.6641-38.344-11.23-56.074zm-101.2 185.19c-8.3398-14.09-30.25-53.477-30.25-82.684 0-67.289 45.117-9.6406 45.117-63.379 0-12.789-6.25-57.645-45.375-67.027-9.6602-12.785-32.352-25.055-68.352-20.098 0 0 6 1.832 12.777 5.2148 0 0-13.039 1.8281-13.555 10.699 0 0 25.832-1.3086 40.434 3.3945-33.656 4.4336-50.875 22.164-47.742 54.25 4.4375 45.648 23.75 127.03 30.527 155.46-51.125-18.262-87.91-67.305-87.91-124.95 0-73.297 59.473-133.02 133.03-133.02 73.551 0 133.02 59.469 133.02 133.02-0.26172 62.602-43.555 115.02-101.73 129.11z" fill="#fff"/>
  <path d="m149.2 178.14c0-17.211 23.484-22.703 32.348-22.703 23.996 0 57.898-15.375 66.254-15.125 8.6055 0.26562 14.078 3.6602 14.078 7.5625 0 5.7383-47.992 27.391-66.512 25.559-17.742-1.5625-21.906 0.27734-21.906 7.5664 0 6.2617 12.773 11.996 26.859 11.996 21.129 0 41.73-9.3789 47.996-4.9492 5.4727 3.9141-14.344 18.004-37.039 18.004-22.699 0-62.078-10.695-62.078-27.922z" fill="#fcd30a" fill-rule="evenodd"/>
  <path d="m190.93 105.11c-6.2539-8.0938-17.469-8.3594-21.379 1.0391 5.9883-4.6953 13.301-5.7383 21.379-1.0391z" fill="#2d4f8d"/>
  <path d="m121.29 105.36c-8.6055-5.2227-22.949-5.7383-22.164 10.695 4.1758-10.176 9.9102-11.996 22.164-10.695z" fill="#2d4f8d"/>
  <path d="m185.72 120.5c-4.6992 0-8.6055 3.9102-8.6055 8.6055 0 4.6953 3.9062 8.5977 8.6055 8.5977 4.6953 0 8.6055-3.9023 8.6055-8.5977 0-4.6953-3.9102-8.6055-8.6055-8.6055zm3.1328 8.082c-1.3086 0-2.6172-1.0508-2.6172-2.6133 0-1.2969 1.0469-2.6133 2.6172-2.6133 1.5625 0 2.6094 1.0547 2.6094 2.6133-0.26953 1.3086-1.3125 2.6133-2.6094 2.6133z" fill="#2d4f8d"/>
  <path d="m118.95 125.18c-5.4805 0-9.9141 4.4336-9.9141 9.918 0 5.4766 4.4336 9.9102 9.9141 9.9102 5.4727 0 9.9102-4.4336 9.9102-9.9102 0-5.4844-4.4375-9.918-9.9102-9.918zm3.6523 9.125c-1.5625 0-2.875-1.3008-2.875-2.8633 0-1.5664 1.3125-2.8672 2.875-2.8672 1.5664 0 2.8672 1.3008 2.8672 2.8672 0 1.5625-1.3008 2.8633-2.8672 2.8633z" fill="#2d4f8d"/>
  <path d="m97.293 82.926c-12.52 9.1406-18.25 23.219-16.43 43.039 4.4297 45.652 23.742 127.28 30.52 155.71 2.3438 0.78906 4.6953 1.5703 7.0469 2.3516-4.1797-17.215-24.266-101.2-33.137-165.62-2.3438-17.223 4.4297-27.391 12-35.48z" fill="#d5d7d8"/>
  <path d="m128.34 71.715c1.043 0 1.8242-0.26953 1.8242-0.26953-13.562-6.5078-34.949-6.7852-40.691-6.7852-0.52344 1.0586-1.0469 2.3516-1.0469 3.6602-0.25781 0.26563 25.043-1.3086 39.91 3.3945z" fill="#d5d7d8"/>
  <path d="m103.82 57.621c-4.168-2.8555-7.5625-4.6797-9.6602-5.7383-1.8164 0.26953-3.3828 0.26953-5.207 0.53516 0 0 5.9961 1.8203 12.777 5.2031h-0.51562z" fill="#d5d7d8"/>
  <path d="m208.93 231.07c-4.4297-1.0391-21.641 11.215-28.164 15.91-0.25781-1.3047-0.51172-2.3477-0.78516-2.8711-0.78516-2.6055-17.473-1.0391-21.383 3.1328-10.434-4.957-31.301-14.602-31.559-8.6055-0.78906 7.8281 0 40.422 4.1719 42.773 3.1328 1.8242 20.863-7.8242 29.734-12.777h0.25391c5.4805 1.3047 15.66 0 19.309-2.3477 0.51953-0.25781 0.78516-0.78125 1.0391-1.3008 8.0898 3.1289 25.555 9.3828 29.215 8.0781 4.6953-1.2969 3.6562-40.684-1.832-41.992z" fill="#67bd47"/>
  <path d="m161.2 268.63c-5.4727-1.043-3.6484-6.5234-3.6484-19.305-1.3164 0.77734-2.3516 1.8359-2.3516 2.875 0 12.781-2.0781 18.523 3.6523 19.297 5.4766 1.3047 15.652 0 19.824-2.3398 0.78516-0.52734 1.0508-1.3086 1.3008-2.6172-3.9102 2.3477-13.559 3.3945-18.777 2.0898z" fill="#43a347"/>
 </g>
</svg>
